src/shared/assets/images/landing/logo-white.svg

<svg width="92" height="32" viewBox="0 0 92 32" fill="none" xmlns="http://www.w3.org/2000/svg">
<path d="M33.085 26.4833V12.3831H37.9541C39.6408 12.3831 40.9202 12.7123 41.7922 13.3709C42.6642 14.0229 43.1002 14.9817 43.1002 16.247C43.1002 16.9379 42.9251 17.548 42.5751 18.0774C42.225 18.6004 41.7381 18.9845 41.1143 19.2298C41.8272 19.4106 42.3873 19.7753 42.7947 20.3242C43.2084 20.8729 43.4152 21.5444 43.4152 22.3384C43.4152 23.6942 42.9888 24.7208 42.1359 25.418C41.283 26.1153 40.0673 26.4704 38.4888 26.4833H33.085ZM35.9492 20.3435V24.1494H38.4028C39.0775 24.1494 39.6026 23.988 39.9781 23.6652C40.36 23.3359 40.551 22.884 40.551 22.3094C40.551 21.0182 39.8922 20.3629 38.5747 20.3435H35.9492ZM35.9492 18.2904H38.0687C39.5135 18.2646 40.236 17.6803 40.236 16.5376C40.236 15.8984 40.0514 15.4401 39.6822 15.1624C39.3194 14.8784 38.7434 14.7363 37.9541 14.7363H35.9492V18.2904ZM53.9365 20.3725H48.4371V24.1494H54.8913V26.4833H45.573V12.3831H54.8723V14.7363H48.4371V18.0968H53.9365V20.3725ZM61.7175 21.3216H59.436V26.4833H56.5717V12.3831H61.7365C63.379 12.3831 64.6455 12.7543 65.5365 13.4967C66.4276 14.2392 66.8734 15.2883 66.8734 16.6441C66.8734 17.6061 66.6661 18.4099 66.2527 19.0555C65.8455 19.6946 65.2248 20.2047 64.3907 20.5856L67.3985 26.3477V26.4833H64.3242L61.7175 21.3216ZM59.436 18.9683H61.746C62.4656 18.9683 63.0226 18.7843 63.417 18.4164C63.8114 18.0419 64.0092 17.5286 64.0092 16.8766C64.0092 16.2116 63.8214 15.6886 63.4455 15.3077C63.0768 14.9268 62.5069 14.7363 61.7365 14.7363H59.436V18.9683ZM74.2058 21.3216H71.9237V26.4833H69.0594V12.3831H74.2248C75.8667 12.3831 77.1337 12.7543 78.0248 13.4967C78.9159 14.2392 79.3611 15.2883 79.3611 16.6441C79.3611 17.6061 79.1544 18.4099 78.7404 19.0555C78.3332 19.6946 77.7125 20.2047 76.879 20.5856L79.8863 26.3477V26.4833H76.8119L74.2058 21.3216ZM71.9237 18.9683H74.2343C74.9533 18.9683 75.5103 18.7843 75.9052 18.4164C76.2997 18.0419 76.4969 17.5286 76.4969 16.8766C76.4969 16.2116 76.3092 15.6886 75.9337 15.3077C75.5645 14.9268 74.9946 14.7363 74.2248 14.7363H71.9237V18.9683ZM85.8823 18.7359L88.7751 12.3831H91.9064L87.3427 21.3701V26.4833H84.4309V21.3701L79.8673 12.3831H83.008L85.8823 18.7359Z" fill="white"/>
<path d="M10.987 31.5834C4.92849 31.5834 0 26.6253 0 20.5316C0 14.4378 4.92899 9.47974 10.987 9.47974C17.045 9.47974 21.974 14.4378 21.974 20.5316C21.974 26.6253 17.0459 31.5834 10.987 31.5834ZM10.987 10.5353C5.50765 10.5353 1.04938 15.019 1.04938 20.5311C1.04938 26.0433 5.50765 30.5269 10.987 30.5269C16.4663 30.5269 20.9251 26.0423 20.9251 20.5301C20.9251 15.0179 16.4673 10.5353 10.987 10.5353Z" fill="white"/>
<path d="M18.96 21.0218C18.6182 19.7476 15.4851 19.6101 13.6203 20.0772C12.6437 20.3228 11.6456 20.642 10.6162 20.8257C11.3697 21.4982 12.1788 22.1343 13.34 22.2924C16.2211 22.6834 18.0112 21.7743 18.96 21.0218Z" fill="white"/>
<path d="M13.34 22.2924C12.1764 22.1342 11.3697 21.4982 10.6162 20.8257C9.45013 19.7849 8.41298 18.6571 6.37723 19.0815C3.14069 19.7564 2.71488 23.6073 5.21404 26.082C6.28706 27.2123 7.66455 28.0033 9.17779 28.3578C10.691 28.7124 12.2742 28.6152 13.7333 28.0782C15.1924 27.5411 16.4641 26.5876 17.3925 25.3344C18.3209 24.0811 18.8656 22.5827 18.96 21.0227C18.0112 21.7742 16.221 22.6834 13.34 22.2924Z" fill="white"/>
<path d="M15.0335 13.9579C14.6296 14.8288 18.2299 15.795 18.6606 18.6871C18.8682 15.8401 15.533 12.8812 15.0335 13.9579Z" fill="white"/>
<path d="M7.46619 17.5928C8.11524 17.3224 8.42345 16.5739 8.15463 15.921C7.8858 15.2681 7.14167 14.958 6.49262 15.2285C5.84357 15.4989 5.53536 16.2474 5.80418 16.9003C6.07306 17.5532 6.81714 17.8632 7.46619 17.5928Z" fill="white"/>
<path d="M10.3544 14.0793C10.658 13.7739 10.658 13.2789 10.3544 12.9734C10.0508 12.668 9.5586 12.668 9.25503 12.9734C8.95145 13.2789 8.95145 13.7739 9.25503 14.0793C9.5586 14.3847 10.0508 14.3847 10.3544 14.0793Z" fill="white"/>
<path d="M13.1009 9.05139C14.224 5.71423 13.4691 3.04803 11.1609 1.78174C9.5831 2.10445 8.64651 2.87268 8.125 3.93316C11.2199 3.68118 13.1839 5.62974 13.1009 9.05139Z" fill="white"/>
<path d="M25.6988 6.13562C20.1394 4.1286 16.6309 4.81676 16.0791 9.38976C19.2653 12.6965 22.4745 11.1138 25.6988 6.13562Z" fill="white"/>
<path d="M21.2765 4.32468C21.5343 3.21655 21.6681 1.90702 21.6881 0.416748C15.9226 1.7081 13.3224 4.17584 15.2839 8.33773C15.3816 8.3613 15.4754 8.38045 15.5696 8.40012C16.0281 5.14348 18.0463 3.93762 21.2765 4.32468Z" fill="white"/>
</svg>

<svg width="92" height="32" fill="none" xmlns="http://www.w3.org/2000/svg"><path d="M33.085 26.483v-14.1h4.87c1.686 0 2.965.33 3.837.988.872.652 1.308 1.61 1.308 2.876 0 .69-.175 1.301-.525 1.83a3.05 3.05 0 0 1-1.46 1.153c.712.18 1.272.545 1.68 1.094.413.549.62 1.22.62 2.014 0 1.356-.426 2.383-1.28 3.08-.852.697-2.068 1.052-3.646 1.065h-5.404Zm2.864-6.14v3.806h2.454c.675 0 1.2-.161 1.575-.484.382-.33.573-.781.573-1.356 0-1.29-.659-1.946-1.976-1.966h-2.626Zm0-2.053h2.12c1.444-.025 2.167-.61 2.167-1.752 0-.64-.185-1.098-.554-1.376-.363-.284-.939-.426-1.728-.426H35.95v3.554Zm17.988 2.082h-5.5v3.777h6.454v2.334h-9.318v-14.1h9.3v2.353h-6.436v3.36h5.5v2.276Zm7.78.95h-2.281v5.161h-2.864v-14.1h5.164c1.643 0 2.91.371 3.8 1.114.892.742 1.337 1.791 1.337 3.147 0 .962-.207 1.766-.62 2.412-.407.639-1.028 1.149-1.862 1.53l3.007 5.762v.135h-3.074l-2.606-5.161Zm-2.281-2.354h2.31c.72 0 1.277-.184 1.671-.552.394-.374.592-.887.592-1.54 0-.664-.188-1.187-.563-1.568-.37-.381-.94-.572-1.71-.572h-2.3v4.232Zm14.77 2.354h-2.282v5.161h-2.865v-14.1h5.166c1.642 0 2.909.371 3.8 1.114.89.742 1.336 1.791 1.336 3.147 0 .962-.207 1.766-.62 2.412-.408.639-1.028 1.149-1.862 1.53l3.007 5.762v.135h-3.074l-2.606-5.161Zm-2.282-2.354h2.31c.72 0 1.276-.184 1.671-.552.395-.374.592-.887.592-1.54 0-.664-.188-1.187-.563-1.568-.37-.381-.94-.572-1.71-.572h-2.3v4.232Zm13.958-.232 2.893-6.353h3.131l-4.563 8.987v5.113H84.43V21.37l-4.564-8.987h3.141l2.874 6.353ZM10.987 31.583C4.928 31.583 0 26.625 0 20.532 0 14.438 4.929 9.48 10.987 9.48s10.987 4.958 10.987 11.052c0 6.093-4.928 11.051-10.987 11.051Zm0-21.048c-5.48 0-9.938 4.484-9.938 9.996 0 5.512 4.459 9.996 9.938 9.996 5.48 0 9.938-4.485 9.938-9.997s-4.458-9.995-9.938-9.995Z" fill="#fff"/><path d="M18.96 21.022c-.342-1.274-3.475-1.412-5.34-.945-.976.246-1.974.565-3.004.749.754.672 1.563 1.308 2.724 1.466 2.881.391 4.671-.518 5.62-1.27Z" fill="#fff"/><path d="M13.34 22.292c-1.164-.158-1.97-.794-2.724-1.466-1.166-1.041-2.203-2.169-4.239-1.745-3.236.675-3.662 4.526-1.163 7.001a7.974 7.974 0 0 0 3.964 2.276 7.941 7.941 0 0 0 4.555-.28 7.99 7.99 0 0 0 3.66-2.744 8.062 8.062 0 0 0 1.567-4.311c-.949.751-2.739 1.66-5.62 1.27ZM15.034 13.958c-.404.87 3.196 1.837 3.627 4.73.207-2.848-3.128-5.807-3.628-4.73ZM7.466 17.593c.65-.27.957-1.02.689-1.672a1.27 1.27 0 0 0-1.662-.692 1.282 1.282 0 0 0-.689 1.671 1.27 1.27 0 0 0 1.662.693ZM10.354 14.08a.785.785 0 0 0 0-1.107.774.774 0 0 0-1.099 0 .785.785 0 0 0 0 1.106.774.774 0 0 0 1.1 0ZM13.1 9.051c1.124-3.337.37-6.003-1.94-7.27-1.577.323-2.513 1.092-3.035 2.152 3.095-.252 5.059 1.697 4.976 5.118ZM25.699 6.136c-5.56-2.007-9.068-1.32-9.62 3.254 3.186 3.306 6.395 1.724 9.62-3.254Z" fill="#fff"/><path d="M21.276 4.325c.258-1.108.392-2.418.412-3.908-5.765 1.291-8.366 3.759-6.404 7.92.098.024.191.043.286.063.458-3.257 2.476-4.462 5.706-4.075Z" fill="#fff"/></svg>
